archdroid-icon-theme/Archdroid-Cyan/places/scalable/folder-debian-color-debianred.svg

<svg fill="#00BCD4" height="48" viewBox="0 0 48 48" width="48" xmlns="http://www.w3.org/2000/svg"><path d="m8 8c-2.21 0-3.980469 1.79-3.980469 4l-.019531 24c0 2.21 1.79 4 4 4h32c2.21 0 4-1.79 4-4v-20c0-2.21-1.79-4-4-4h-16l-4-4zm23.132813 8c-.237705.054032-.565005.017547-.789063.099609l-.132812-.019531c.303907-.039279.612066-.054076.921875-.080078zm-1.353516.142578c-.158962.088886-.315841.159112-.464844.263672.603685-.144015.576191.057201 1.191406-.023437-.216317.031758-.477469.117661-.435546.15039.690062.080034.794613-.212809 1.433593 0l-.039062-.189453c.887381.320505 1.072645.26579 2.037109.777344.338946.016412.373028-.208199.884766 0 .089992.158039-.020679.186563.607422.560547.070075-.027846-.124762-.204261-.279297-.345703 1.263024.674571 2.636077 2.114104 3.054687 3.654296-.391871-.722518-.041162.369114-.175781.3125.174636.471168.317733.958236.40625 1.460938-.115994-.412894-.369178-1.408481-.8125-2.050781-.036144.414553-.571771-.287277-.279297.625.222952.323086.045542-.326206.320313.248047.004241.272926.109435.54271.169922.898437-.094418-.01549-.210144-.392223-.279297-.287109.09534.447378.252751.680543.3125.714843-.030612.074871-.109887-.069901-.115235.234375.036513.700574.196245.404122.271485.4375-.076346.344663-.384745.750688-.232422 1.34375-.043705-.179615-.1304-.359086-.195313-.529296-.060117.506389.112738.605033-.121093 1.21875.16855-.55323.150964-1.052971-.007813-.8125.07026.786324-.621745 1.389549-.546875 1.886718l-.203125-.277343c-.5453.790565-.012148.436192-.382812 1.035156.136094-.235307-.07175-.096809.105468-.363281-.117653.006823-.525929.500754-.898437.791015-1.465138 1.174507-3.212998 1.327839-4.90625.695313-.065835.054032.301367.341054.572265.480468.644698.238442 1.375151.249723 1.949219.228516-1.241079.51893-3.60969-.528331-4.384765-1.916016.175373.038173.775017.976584 1.224609 1.128907-.265735-.212994-.471614-.484844-.662109-.763672.359046.412709.796553.749336 1.273437.972656-.030612-.115994.132152-.138693-.09375-.291016-1.436001-1.100005-2.284737-2.034798-1.990234-4.199218.218894-.165232.276964-1.068503.779297-1.384766.30612-.676416 1.22457-1.298963 2.205078-1.314453 1.000977-.055139 1.845204.53477 2.269531 1.089844-.772494-.719937-2.036805-.940117-3.115234-.40625-1.102772.496431-1.75745 1.710745-1.66211 2.919922.040939-.060303.077925-.022688.097656-.171875-.033747 2.35012 2.531119 4.072249 4.378907 3.203125l.023437.048828c.749073-.204327.650832-.372621 1.140625-.708985-.038173.078928-.328195.279331-.154297.283203.238442-.063252.981787-.754779 1.347657-1.080078.167813-.361997-.089854-.19722.144531-.652343l.287109-.142579c.158929-.45966.335578-.71949.316406-1.253906l-.167968.351563c.246003-.744832.104002-1.554733.138672-2.25586l-.06836-.019531c-.060118-1.763881-1.584333-3.639252-2.941406-4.273437-1.169528-.540322-2.970861-.631603-3.802734-.22461.114518-.101425.570979-.144466.433593-.222656-1.302487.129456-1.01137.453945-2.009765.708984-.273849.264444.800228-.211959.222656.13086-.535527.147712-.786562-.092662-1.580078.728515.070629.114334.503837-.338598.142578.115235-.745754-.092574-2.35537 1.706352-2.697266 2.302734l.179688.03125c-.293581.735427-.679865 1.203976-.732422 1.644531-.075793 1.082671-.455072 3.058569.070312 3.666016l-.050781.507812c.072104.14384.127174.290794.216797.425782l-.117187.007812c.552676 1.743228.592555.033213 1.322265 1.84375-.105851-.035591-.211068-.075004-.365234-.283203-.018441.158777.222748.635304.511719 1.007813l-.121094.138671c.160805.292106.308354.357006.419922.458985-.600439-.327697.557549 1.080334.662109 1.259765l.091797-.164062c-.013278.236229.168716.541623.511719.964844l.287109-.011719c.117654.232541.547654.652143.808594.671875l-.173828.226562c.655024.207462.317913.275634 1.123047.560547l-.16211-.287109c.410866.35628.537587.668479 1.117188.941406.803658.280119.909509.168437 1.734375.404297-.699099-.020285-1.521542-.01325-2.074219-.210937-3.770631-1.021632-7.21907-5.444336-6.966797-10-.058089-.922419.091114-2.075098-.0625-2.304688.215575-.701864.466417-1.557676.96875-2.576172-.036329-.068232.082483.19888.337891-.236328.154904-.340236.281272-.714275.476562-1.044922l.09961-.023437c.100503-.583474 1.361053-1.479174 1.736328-1.929688l.027343.173828c.818965-.767883 2.277879-1.283783 3.09961-1.65039-.21576.238811.48252-.024076.986328-.054688zm.498047.115235c.590665.016781.546961.055241.353515.097656l-.007812.015625-.115234.011719.123046-.027344c.028768-.04223-.176666-.065938-.353515-.097656zm-7.800781 4.023437c-.00332.198056.333373-.194584.091796.349609-.450698.315157-.040162.128382-.091796-.349609zm-.367188 1.519531c-.039648.18441-.058287.374699-.162109.69336.030243-.249507-.124833-.326568.162109-.69336zm11.810547 2.214844c.040985-.001037.068836.100062.048828.398438-.059749.240286-.108145-.147601-.169922-.179688.026463-.113873.080109-.217713.121094-.21875zm3.623047 1.005859c-.088517.680104-.298595 1.351128-.625 1.964844.295425-.581629.486917-1.209748.576172-1.84375zm-3.837891.222657c-.050713.308333-.195259.606532-.392578.878906.024158-.234201-.550854.102.115234-.736328-.057904.236229-.61748.856824.001954.466797.112305-.20027.231132-.389559.27539-.609375zm-1.351562 1.28125c-.096631.091836-.204721.185985-.324219.279297-.432626-.066573-.825525-.233672-.494141-.238282.276246.025264.548937.025003.81836-.041015zm-4.181641.041015c.076346.152876.144509.306167.259766.433594l.101562.300781c-.139229-.234754-.288302-.465689-.361328-.734375zm-.253906.455078c.27348.527966.421009.689498.621094 1.080079-.278091-.231251-.450181-.551863-.667969-.847657z" fill="#d70a53"/></svg>

<svg fill="#00BCD4" height="48" version="1.1" viewBox="0 0 48 48" width="48" xmlns="http://www.w3.org/2000/svg"><path d="M8 8C5.79 8 4.019531 9.79 4.019531 12L4 36C4 38.21 5.79 40 8 40L40 40C42.21 40 44 38.21 44 36L44 16C44 13.79 42.21 12 40 12L24 12 20 8 8 8zM31.132813 16C30.895108 16.054032 30.567808 16.017547 30.34375 16.099609L30.210938 16.080078C30.514845 16.040799 30.823004 16.026002 31.132813 16zM29.779297 16.142578C29.620335 16.231464 29.463456 16.30169 29.314453 16.40625 29.918138 16.262235 29.890644 16.463451 30.505859 16.382813 30.289542 16.414571 30.02839 16.500474 30.070313 16.533203 30.760375 16.613237 30.864926 16.320394 31.503906 16.533203L31.464844 16.34375C32.352225 16.664255 32.537489 16.60954 33.501953 17.121094 33.840899 17.137506 33.874981 16.912895 34.386719 17.121094 34.476711 17.279133 34.36604 17.307657 34.994141 17.681641 35.064216 17.653795 34.869379 17.47738 34.714844 17.335938 35.977868 18.010509 37.350921 19.450042 37.769531 20.990234 37.37766 20.267716 37.728369 21.359348 37.59375 21.302734 37.768386 21.773902 37.911483 22.26097 38 22.763672 37.884006 22.350778 37.630822 21.355191 37.1875 20.712891 37.151356 21.127444 36.615729 20.425614 36.908203 21.337891 37.131155 21.660977 36.953745 21.011685 37.228516 21.585938 37.232757 21.858864 37.337951 22.128648 37.398438 22.484375 37.30402 22.468885 37.188294 22.092152 37.119141 22.197266 37.214481 22.644644 37.371892 22.877809 37.431641 22.912109 37.401029 22.98698 37.321754 22.842208 37.316406 23.146484 37.352919 23.847058 37.512651 23.550606 37.587891 23.583984 37.511545 23.928647 37.203146 24.334672 37.355469 24.927734 37.311764 24.748119 37.225069 24.568648 37.160156 24.398438 37.100039 24.904827 37.272894 25.003471 37.039063 25.617188 37.207613 25.063958 37.190027 24.564217 37.03125 24.804688 37.10151 25.591012 36.409505 26.194237 36.484375 26.691406L36.28125 26.414063C35.73595 27.204628 36.269102 26.850255 35.898438 27.449219 36.034532 27.213912 35.826688 27.35241 36.003906 27.085938 35.886253 27.092761 35.477977 27.586692 35.105469 27.876953 33.640331 29.05146 31.892471 29.204792 30.199219 28.572266 30.133384 28.626298 30.500586 28.91332 30.771484 29.052734 31.416182 29.291176 32.146635 29.302457 32.720703 29.28125 31.479624 29.80018 29.111013 28.752919 28.335938 27.365234 28.511311 27.403407 29.110955 28.341818 29.560547 28.494141 29.294812 28.281147 29.088933 28.009297 28.898438 27.730469 29.257484 28.143178 29.694991 28.479805 30.171875 28.703125 30.141263 28.587131 30.304027 28.564432 30.078125 28.412109 28.642124 27.312104 27.793388 26.377311 28.087891 24.212891 28.306785 24.047659 28.364855 23.144388 28.867188 22.828125 29.173308 22.151709 30.091758 21.529162 31.072266 21.513672 32.073243 21.458533 32.91747 22.048442 33.341797 22.603516 32.569303 21.883579 31.304992 21.663399 30.226563 22.197266 29.123791 22.693697 28.469113 23.908011 28.564453 25.117188 28.605392 25.056885 28.642378 25.0945 28.662109 24.945313 28.628362 27.295433 31.193228 29.017562 33.041016 28.148438L33.064453 28.197266C33.813526 27.992939 33.715285 27.824645 34.205078 27.488281 34.166905 27.567209 33.876883 27.767612 34.050781 27.771484 34.289223 27.708232 35.032568 27.016705 35.398438 26.691406 35.566251 26.329409 35.308584 26.494186 35.542969 26.039063L35.830078 25.896484C35.989007 25.436824 36.165656 25.176994 36.146484 24.642578L35.978516 24.994141C36.224519 24.249309 36.082518 23.439408 36.117188 22.738281L36.048828 22.71875C35.98871 20.954869 34.464495 19.079498 33.107422 18.445313 31.937894 17.904991 30.136561 17.81371 29.304688 18.220703 29.419206 18.119278 29.875667 18.076237 29.738281 17.998047 28.435794 18.127503 28.726911 18.451992 27.728516 18.707031 27.454667 18.971475 28.528744 18.495072 27.951172 18.837891 27.415645 18.985603 27.16461 18.745229 26.371094 19.566406 26.441723 19.68074 26.874931 19.227808 26.513672 19.681641 25.767918 19.589067 24.158302 21.387993 23.816406 21.984375L23.996094 22.015625C23.702513 22.751052 23.316229 23.219601 23.263672 23.660156 23.187879 24.742827 22.8086 26.718725 23.333984 27.326172L23.283203 27.833984C23.355307 27.977824 23.410377 28.124778 23.5 28.259766L23.382813 28.267578C23.935489 30.010806 23.975368 28.300791 24.705078 30.111328 24.599227 30.075737 24.49401 30.036324 24.339844 29.828125 24.321403 29.986902 24.562592 30.463429 24.851563 30.835938L24.730469 30.974609C24.891274 31.266715 25.038823 31.331615 25.150391 31.433594 24.549952 31.105897 25.70794 32.513928 25.8125 32.693359L25.904297 32.529297C25.891019 32.765526 26.073013 33.07092 26.416016 33.494141L26.703125 33.482422C26.820779 33.714963 27.250779 34.134565 27.511719 34.154297L27.337891 34.380859C27.992915 34.588321 27.655804 34.656493 28.460938 34.941406L28.298828 34.654297C28.709694 35.010577 28.836415 35.322776 29.416016 35.595703 30.219674 35.875822 30.325525 35.76414 31.150391 36 30.451292 35.979715 29.628849 35.98675 29.076172 35.789063 25.305541 34.767431 21.857102 30.344727 22.109375 25.789063 22.051286 24.866644 22.200489 23.713965 22.046875 23.484375 22.26245 22.782511 22.513292 21.926699 23.015625 20.908203 22.979296 20.839971 23.098108 21.107083 23.353516 20.671875 23.50842 20.331639 23.634788 19.9576 23.830078 19.626953L23.929688 19.603516C24.030191 19.020042 25.290741 18.124342 25.666016 17.673828L25.693359 17.847656C26.512324 17.079773 27.971238 16.563873 28.792969 16.197266 28.577209 16.436077 29.275489 16.17319 29.779297 16.142578zM30.277344 16.257813C30.868009 16.274594 30.824305 16.313054 30.630859 16.355469L30.623047 16.371094 30.507813 16.382813 30.630859 16.355469C30.659627 16.313239 30.454193 16.289531 30.277344 16.257813zM22.476563 20.28125C22.473243 20.479306 22.809936 20.086666 22.568359 20.630859 22.117661 20.946016 22.528197 20.759241 22.476563 20.28125zM22.109375 21.800781C22.069727 21.985191 22.051088 22.17548 21.947266 22.494141 21.977509 22.244634 21.822433 22.167573 22.109375 21.800781zM33.919922 24.015625C33.960907 24.014588 33.988758 24.115687 33.96875 24.414063 33.909001 24.654349 33.860605 24.266462 33.798828 24.234375 33.825291 24.120502 33.878937 24.016662 33.919922 24.015625zM37.542969 25.021484C37.454452 25.701588 37.244374 26.372612 36.917969 26.986328 37.213394 26.404699 37.404886 25.77658 37.494141 25.142578L37.542969 25.021484zM33.705078 25.244141C33.654365 25.552474 33.509819 25.850673 33.3125 26.123047 33.336658 25.888846 32.761646 26.225047 33.427734 25.386719 33.36983 25.622948 32.810254 26.243543 33.429688 25.853516 33.541993 25.653246 33.66082 25.463957 33.705078 25.244141zM32.353516 26.525391C32.256885 26.617227 32.148795 26.711376 32.029297 26.804688 31.596671 26.738115 31.203772 26.571016 31.535156 26.566406 31.811402 26.59167 32.084093 26.591409 32.353516 26.525391zM28.171875 26.566406C28.248221 26.719282 28.316384 26.872573 28.431641 27L28.533203 27.300781C28.393974 27.066027 28.244901 26.835092 28.171875 26.566406zM27.917969 27.021484C28.191449 27.54945 28.338978 27.710982 28.539063 28.101563 28.260972 27.870312 28.088882 27.5497 27.871094 27.253906L27.917969 27.021484z" fill="#d70a53"/></svg>
